korshun/images/header-rect-desk.svg

<svg width="412" height="458" viewBox="0 0 412 458" fill="none" xmlns="http://www.w3.org/2000/svg">
<path fill-rule="evenodd" clip-rule="evenodd" d="M13.2396 57.1377V12.6573H151.867V0H13.2396H0.582214L0.582245 12.6573L0.582214 57.1377H13.2396Z" fill="#82B944"/>
<path fill-rule="evenodd" clip-rule="evenodd" d="M398.289 0H259.662V12.6573H398.289V57.1377H410.947L410.947 0H398.289Z" fill="#82B944"/>
<path fill-rule="evenodd" clip-rule="evenodd" d="M13.2393 444.887V302.344H0.581909V457.544H13.2393L61.6753 457.544V444.887H13.2393Z" fill="#82B944"/>
<rect x="13.3909" y="186.019" width="27.5123" height="12.6574" transform="rotate(90 13.3909 186.019)" fill="#82B944"/>
<rect x="411.098" y="186.019" width="27.5123" height="12.6574" transform="rotate(90 411.098 186.019)" fill="#82B944"/>
<path fill-rule="evenodd" clip-rule="evenodd" d="M410.947 444.887L410.946 302.344H398.289V444.887H349.854V457.544L398.289 457.544H410.946L410.947 444.887Z" fill="#82B944"/>
</svg>

<svg width="412" height="458" viewBox="0 0 412 458" fill="none" xmlns="http://www.w3.org/2000/svg"><path fill-rule="evenodd" clip-rule="evenodd" d="M13.24 57.138v-44.48h138.627V0H.582v57.137H13.24zM398.289 0H259.662v12.657h138.627v44.48h12.658V0h-12.658zM13.24 444.887V302.344H.581v155.2h61.093v-12.657H13.24z" fill="#82B944"/><path fill="#82B944" d="M13.39 186.02v27.511H.735V186.02zM411.098 186.019v27.512h-12.657v-27.512z"/><path fill-rule="evenodd" clip-rule="evenodd" d="M410.947 444.887l-.001-142.543h-12.657v142.543h-48.435v12.657h61.092l.001-12.657z" fill="#82B944"/></svg>
